X: 208
T: Bak Sabâ`da Bûselik
C: Ahmet Avni Konuk
O: Turkey
F: http://compmusic.upf.edu/node/140
N: sababuselik--kupe--agiraksak--bak--ahmet_avni_konuk
N: makam= sababuselik
N: form= kupe
N: usul= agiraksak = 9/4
M: 9/4
L: 1/16
K: C _1/4B _7/8d  
Q: 1/4=60
%%MIDI tuningsystem comma53
_2/4B4 c4 z2A4B2 c2_3/4d2 c2B2 c4 d8  | \
w:  Ah  *  bak  Sa bâ *  *  *  da   | 
_3/4d2c4_2/4B2 z2c2 c2d2 d2c2 c2B2 B4 c4 B2A2  | 
w:  *  *  *  Bû *  se lik  *  *  *  ol  | 
A8 z2A4_2/4B2 c2_3/4d2 c2B2 c2d2 e2f2 e2d2  | \
w:  *  maz  mı  câ *  *  *  nâ   | 
c2_7/8a2 g2f2 e2f2 e2_3/4d2 d3c _2/4B2c2 B4 c4 z4  | 
w:  pek  *  *  *  ha *  *  *  zîn    | 
z8 z2c4_3/4d2 e2f2 g2_7/8a2 g2f2 e2f2 e2d2  | \
w:  Fas lı nın  *  *  *  vakt_  | 
c2_3/4d2 c2_2/4B2 c4 d4 d2c4B2 B4 c4 B2A2  | 
w:  i  *  *  *  se *  her *  *  de   | 
A8 z2A4_2/4B2 c4 =d4 e2f2 e2d2 c3=B  | \
w:  *  kal be  te' *  si  | 
A4 A3=B c2=d2 c2B2 B2A2 A2^G2 A8 z4  | 
w:  ri  *  *  *  *  de *  rin    | 
|


